symbolic/24x24/apps/diffuse.svg

<svg xmlns="http://www.w3.org/2000/svg" width="24" height="24" version="1">
 <path style="opacity:0.2" d="m 11.499653,1.5000576 c -0.550023,0 -1.100415,0.2050103 -1.5115714,0.6161561 L 1.6161224,10.489105 c -0.82231178,0.822291 -0.82114533,2.198403 0.00124,3.020696 l 8.3719592,8.372892 c 0.8223134,0.822292 2.1996524,0.823458 3.0219654,0.0012 L 21.383246,13.511 c 0.822311,-0.822291 0.822312,-2.199582 0,-3.021873 L 13.011266,2.1162548 C 12.600109,1.7051089 12.049719,1.5000987 11.499694,1.5000987 Z"/>
 <path style="fill:#ffb14b" d="m 11.499653,1.000056 c -0.550023,0 -1.100415,0.2050103 -1.5115714,0.6161561 L 1.6161224,9.9891044 c -0.82231178,0.8222916 -0.82114533,2.1984036 0.00124,3.0206966 l 8.3719592,8.372892 c 0.8223134,0.822292 2.1996524,0.823458 3.0219654,0.0012 L 21.383246,13.011 c 0.822311,-0.822291 0.822312,-2.199582 0,-3.0218736 L 13.011266,1.6162532 C 12.600109,1.2051073 12.049719,1.0000971 11.499694,1.0000971 Z"/>
 <path style="opacity:0.1" d="m 12,5.9999078 v 3.493 l -2,1.9999992 0.007,0.007 H 10 v 5.0001 h 1 v -4.5931 l 1,-1 v 5.5931 h 1 V 6.0000078 Z"/>
 <path style="fill:#3f3f3f" d="m 12,5.4999 v 3.493 l -2,2 0.007,0.007 H 10 V 16 h 1 v -4.5931 l 1,-1 V 16 h 1 V 5.5 Z"/>
 <path style="fill:#ffffff;opacity:0.2" d="M 11.5 1 C 10.949977 1 10.399438 1.2060417 9.9882812 1.6171875 L 1.6152344 9.9882812 C 1.141435 10.462069 0.95090732 11.120366 1.0234375 11.75 C 1.0762896 11.28686 1.266722 10.836785 1.6152344 10.488281 L 9.9882812 2.1171875 C 10.399438 1.7060417 10.949977 1.5 11.5 1.5 C 12.050025 1.5 12.600562 1.7060416 13.011719 2.1171875 L 21.382812 10.488281 C 21.731325 10.836785 21.923463 11.286616 21.976562 11.75 C 22.04875 11.120034 21.856612 10.462069 21.382812 9.9882812 L 13.011719 1.6171875 C 12.600562 1.2060416 12.050025 1 11.5 1 z"/>
</svg>

<svg xmlns="http://www.w3.org/2000/svg" width="24" height="24" version="1"><path style="opacity:.2" d="M11.5 1.5c-.55 0-1.1.205-1.512.616L1.616 10.49a2.158 2.158 0 0 0 .001 3.02l8.372 8.374a2.16 2.16 0 0 0 3.022 0l8.372-8.372a2.16 2.16 0 0 0 0-3.022l-8.372-8.373A2.131 2.131 0 0 0 11.5 1.5z"/><path style="fill:#ffb14b" d="M11.5 1c-.55 0-1.1.205-1.512.616L1.616 9.99a2.158 2.158 0 0 0 .001 3.02l8.372 8.374a2.16 2.16 0 0 0 3.022 0l8.372-8.372a2.16 2.16 0 0 0 0-3.022l-8.372-8.373A2.131 2.131 0 0 0 11.5 1z"/><path style="opacity:.1" d="M12 6v3.493l-2 2 .007.007H10v5h1v-4.593l1-1V16.5h1V6z"/><path style="fill:#3f3f3f" d="M12 5.5v3.493l-2 2 .007.007H10v5h1v-4.593l1-1V16h1V5.5z"/><path style="fill:#fff;opacity:.2" d="M11.5 1c-.55 0-1.1.206-1.512.617L1.615 9.988a2.135 2.135 0 0 0-.592 1.762c.053-.463.244-.913.592-1.262l8.373-8.37A2.133 2.133 0 0 1 11.5 1.5c.55 0 1.1.206 1.512.617l8.37 8.371c.35.349.541.799.595 1.262a2.137 2.137 0 0 0-.594-1.762l-8.371-8.37A2.133 2.133 0 0 0 11.5 1z"/></svg>
